resources/svg/battery-0.svg

<svg xmlns="http://www.w3.org/2000/svg" viewBox="0 0 15 15" fill="currentColor"><path d="M1.5 13C0.671573 13 0 12.3284 0 11.5V3.5C0 2.67157 0.671572 2 1.5 2H11.5C12.3284 2 13 2.67157 13 3.5V11.5C13 12.3284 12.3284 13 11.5 13L1.5 13Z" fill="black"/><path d="M15 10V5H14V10H15Z" fill="black"/></svg>

<svg xmlns="http://www.w3.org/2000/svg" viewBox="0 0 15 15" fill="currentColor"><path d="M1.5 13A1.5 1.5 0 010 11.5v-8A1.5 1.5 0 011.5 2h10A1.5 1.5 0 0113 3.5v8a1.5 1.5 0 01-1.5 1.5h-10zM15 10V5h-1v5h1z" fill="currentColor"/></svg>
